other/camera.svg

<?xml version="1.0" encoding="UTF-8" standalone="no"?>
<svg
   xmlns:dc="http://purl.org/dc/elements/1.1/"
   xmlns:cc="http://creativecommons.org/ns#"
   xmlns:rdf="http://www.w3.org/1999/02/22-rdf-syntax-ns#"
   xmlns:svg="http://www.w3.org/2000/svg"
   xmlns="http://www.w3.org/2000/svg"
   xmlns:xlink="http://www.w3.org/1999/xlink"
   xmlns:sodipodi="http://sodipodi.sourceforge.net/DTD/sodipodi-0.dtd"
   xmlns:inkscape="http://www.inkscape.org/namespaces/inkscape"
   width="48"
   height="48"
   viewBox="0 0 48 48"
   version="1.1"
   id="svg4"
   sodipodi:docname="camera_frost.svg"
   inkscape:version="0.92.3 (2405546, 2018-03-11)">
  <metadata
     id="metadata10">
    <rdf:RDF>
      <cc:Work
         rdf:about="">
        <dc:format>image/svg+xml</dc:format>
        <dc:type
           rdf:resource="http://purl.org/dc/dcmitype/StillImage" />
        <dc:title />
      </cc:Work>
    </rdf:RDF>
  </metadata>
  <defs
     id="defs8">
    <inkscape:tag
       id="Set 2"
       inkscape:expanded="true">
      <inkscape:tagref
         xlink:href="#path1119"
         id="tagref1157" />
      <inkscape:tagref
         xlink:href="#path1131"
         id="tagref1159" />
      <inkscape:tagref
         xlink:href="#path1129"
         id="tagref1161" />
      <inkscape:tagref
         xlink:href="#path1127"
         id="tagref1163" />
      <inkscape:tagref
         xlink:href="#path1125"
         id="tagref1165" />
      <inkscape:tagref
         xlink:href="#path1123"
         id="tagref1167" />
      <inkscape:tagref
         xlink:href="#path1121"
         id="tagref1169" />
    </inkscape:tag>
    <inkscape:tag
       id="Set 1"
       inkscape:expanded="true">
      <inkscape:tagref
         xlink:href="#rect966"
         id="tagref991" />
      <inkscape:tagref
         xlink:href="#rect964"
         id="tagref993" />
      <inkscape:tagref
         xlink:href="#rect962"
         id="tagref995" />
      <inkscape:tagref
         xlink:href="#rect958"
         id="tagref997" />
      <inkscape:tagref
         xlink:href="#rect956"
         id="tagref999" />
      <inkscape:tagref
         xlink:href="#rect954"
         id="tagref1001" />
      <inkscape:tagref
         xlink:href="#path948"
         id="tagref1003" />
    </inkscape:tag>
    <clipPath
       clipPathUnits="userSpaceOnUse"
       id="clipPath925">
      <circle
         r="62.113518"
         cy="286.50253"
         cx="-765.95325"
         id="circle927"
         style="opacity:1;fill:#000000;fill-opacity:1;stroke:none;stroke-width:8.33771324;stroke-linejoin:bevel;stroke-miterlimit:4;stroke-dasharray:none;stroke-dashoffset:0;stroke-opacity:0.85098039;paint-order:normal" />
    </clipPath>
  </defs>
  <sodipodi:namedview
     pagecolor="#7a7a7a"
     bordercolor="#666666"
     borderopacity="1"
     objecttolerance="10"
     gridtolerance="10"
     guidetolerance="10"
     inkscape:pageopacity="0"
     inkscape:pageshadow="2"
     inkscape:window-width="1920"
     inkscape:window-height="1046"
     id="namedview6"
     showgrid="false"
     inkscape:zoom="8"
     inkscape:cx="-20.482685"
     inkscape:cy="24.455349"
     inkscape:window-x="0"
     inkscape:window-y="0"
     inkscape:window-maximized="1"
     inkscape:current-layer="layer1"
     inkscape:snap-global="true"
     inkscape:object-paths="true"
     inkscape:snap-intersection-paths="true"
     inkscape:snap-smooth-nodes="true">
    <sodipodi:guide
       position="48,48"
       orientation="0,-48"
       id="guide935"
       inkscape:locked="false" />
    <sodipodi:guide
       position="0,48"
       orientation="48,0"
       id="guide937"
       inkscape:locked="false" />
  </sodipodi:namedview>
  <g
     inkscape:groupmode="layer"
     id="layer1"
     inkscape:label="Layer 1"
     style="display:inline">
    <path
       style="display:inline;opacity:1;fill:#ffffff;fill-opacity:1;stroke:none;stroke-width:0.25995758;stroke-linejoin:bevel;stroke-miterlimit:4;stroke-dasharray:none;stroke-dashoffset:0;stroke-opacity:1;paint-order:normal"
       d="M 23.96875,2.1953125 C 17.986843,2.209128 12.283134,4.6904726 8.1835938,9.0429688 L 16.714844,23.820312 28.853516,2.7949219 C 27.25123,2.4177035 25.615214,2.2027625 23.96875,2.1953125 Z M 29.181641,2.84375 20.634766,17.652344 H 44.826172 C 42.58949,10.29891 36.652801,4.6677119 29.181641,2.84375 Z M 7.9785156,9.2832031 C 4.2750701,13.292549 2.1971923,18.537553 2.1875,24 c 0.00149,2.166586 0.3282703,4.300611 0.9492188,6.335938 0.00173,0.0035 0.0023,0.0065 0.00391,0.0098 H 20.136719 Z M 28.03125,17.96875 40.015625,38.726562 C 43.724092,34.716117 45.8029,29.466684 45.8125,24 45.8076,21.957685 45.502672,19.929286 44.931641,17.96875 Z m 3.417969,6.521484 -12.003907,20.791016 c 1.5073,0.331343 3.042313,0.519485 4.585938,0.525391 5.978589,-0.0098 11.68115,-2.484523 15.783203,-6.830079 z M 3.3085938,30.660156 c 1.0499004,3.273719 2.8412604,6.263152 5.265625,8.703125 l 0.00195,0.002 0.017578,0.01758 h 0.00195 c 2.8961082,2.90687 6.5583722,4.92289 10.5566412,5.839844 l 8.410156,-14.5625 H 20.41015 Z"
       id="path1174"
       inkscape:connector-curvature="0" />
  </g>
</svg>

<svg width="48" height="48" version="1.1" viewBox="0 0 48 48" xmlns="http://www.w3.org/2000/svg">
 <path d="m23.969 2.1953c-5.9819 0.013816-11.686 2.4952-15.785 6.8477l8.5313 14.777 12.139-21.025c-1.6023-0.37722-3.2383-0.59216-4.8848-0.59961zm5.2129 0.64844-8.5469 14.809h24.191c-2.2367-7.3534-8.1734-12.985-15.645-14.809zm-21.203 6.4395c-3.7034 4.0093-5.7813 9.2543-5.791 14.717 0.00149 2.1666 0.32827 4.3006 0.94922 6.3359 0.00173 0.0035 0.0023 0.0065 0.00391 0.0098h16.996zm20.053 8.6855 11.984 20.758c3.7085-4.0104 5.7873-9.2599 5.7969-14.727-0.0049-2.0423-0.30983-4.0707-0.88086-6.0312zm3.418 6.5215-12.004 20.791c1.5073 0.33134 3.0423 0.51948 4.5859 0.52539 5.9786-0.0098 11.681-2.4845 15.783-6.8301zm-28.141 6.1699c1.0499 3.2737 2.8413 6.2632 5.2656 8.7031l0.00195 2e-3 0.017578 0.01758h0.00195c2.8961 2.9069 6.5584 4.9229 10.557 5.8398l8.4102-14.562h-7.1523z" fill="#fff" style="paint-order:normal"/>
</svg>
